X:1
T:God May Call for You
T:God May Call for You
T:John Sylvester Fearis
T:Lanta Wilson Smith, 1903
T:Public Domain Courtesy of the Cyber Hymnal™
T:Public Domain Courtesy of the Cyber Hymnal™
C:John Sylvester Fearis
Z:Public Domain
Z:Courtesy of the Cyber Hymnal™
%%score ( 1 2 ) ( 3 4 )
L:1/8
Q:1/4=90
M:4/4
K:F
V:1 treble 
V:2 treble 
V:3 bass 
V:4 bass 
V:1
 [FA]>[GB] | [Ac]>[^G=B] [Ac]>[_Bd] [Ac]>[FA] F>[F=G] | [FA]>[F^G] [FA]>[FB] [FA]2 [=GB]>[FA] | %3
w: 1.~When the|hosts of sin are march- ing With their|wea- pons gleam- ing bright, With their|
w: 2.~When the|fort- ress is in dan- ger, Watch the|foe with cease- less care; He will|
w: 3.~There are|sol- diers who have ne- ver Seen the|thick- est of the fight, But in|
 [EG]>[^D^F] [EG]>[=FA] [GB]>[GB] [FA]>[EG] | [FA]>[Fc] [F=B]>[Fd] [Ec]2 [FA]>[G_B] | %5
w: ban- ners bold- ly wav- ing, All their|forc- es in the fight; Then the|
w: sure- ly gain an en- trance, If one|trai- tor soul is there; He will|
w: hum- ble, cheer- ful ser- vice, They have|kept the ar- mor bright; Ne- ver|
 [Ac]>[^G=B] [Ac]>[_Bd] [Ac]>[FA] [C=G]>[CF] | [FB]>[FB] [Fc]>[Fc] !fermata![Fd]2 [Fd]>[Fd] | %7
w: ar- my of Je- ho- vah Keeps them|faith- ful- ly in view, And the|
w: tempt, and bribe, and threat- en, Ev- ery|e- vil art pur- sue! Then the|
w: wea- ry, ev- er faith- ful, Glad to|toil the whole day thro’, There is|
 [Fc]>[Ff] [Fe]>[Fd] [Fc]>[FA] F>[FG] | [FA]2 [EG]2 !fermata!F2 ||"^Refrain" [Ac]>[FA] | %10
w: Lord will want a lead- er— He may|call for you.||
w: Lord wants faith- ful ser- vants— He may|call for you.|Are you|
w: need of spe- cial work- ers— God may|call for you.||
 [Bd][Ac]- [Ac]4 [FA]>F | [FB][FA]- [FA]4 [GB]>[FA] | [EG]2 [Ec]2 [Ec]2 [Ed]2 | c6 [Ac]>[FA] | %14
w: ||||
w: rea- dy? * Are you|rea- dy? * Will you|no- bly dare and|do? Are you|
w: ||||
 [Bd][Ac]- [Ac]4 [FA]>F | [FB][FA]- [FA]4 [Fc]>[FB] | [FA]6 [EG]2 | [CF]6 |] %18
w: ||||
w: rea- dy? * Are you|rea- dy? * God may|call for|you!|
w: ||||
V:2
 x2 | x6 F3/2 x/ | x8 | x8 | x8 | x8 | x8 | x6 F3/2 x/ | x4 F2 || x2 | x15/2 F/ | x8 | x8 | %13
 (F2 F2 F2) x2 | x15/2 F/ | x8 | x8 | x6 |] %18
V:3
 [F,C]>[F,C] | [F,F]>[F,F] [F,F]>[F,F] [F,F]>[F,C] [F,A,]>[F,B,] | %2
w: ~ ~|~ ~ ~ ~ ~ ~ ~ ~|
 [F,C]>[F,=B,] [F,C]>[F,D] [F,C]2 [E,C]>[F,C] | [C,C]>[C,C] [C,C]>[C,C] [C,C]>[C,C] [C,C]>[C,C] | %4
w: ~ ~ ~ ~ ~ ~ ~|~ ~ ~ ~ ~ ~ ~ ~|
 [F,C]>[F,A,] G,>[G,=B,] [C,C]2 [F,C]>[F,C] | [F,F]>[F,F] [F,F]>[F,F] [F,F]>[F,C] [_E,A,]>[E,A,] | %6
w: ~ ~ ~ ~ ~ ~ ~|~ ~ ~ ~ ~ ~ ~ ~|
 [D,B,]>[D,B,] [C,A,]>[C,A,] !fermata![B,,A,]2 [B,,B,]>[B,,B,] | %7
w: ~ ~ ~ ~ ~ ~ ~|
 [C,A,]>[C,A,] [=B,,^G,]>[B,,G,] [C,A,]>[C,C] [D,=B,]>[D,B,] | [C,C]2 [C,B,]2 !fermata![F,A,]2 || %9
w: ~ ~ ~ ~ ~ ~ ~ ~|~ ~ ~|
 [F,C]>[F,C] | [F,F][F,F-] F4 [F,C]>[F,A,] | [F,D][F,C-] C4 [E,C]>[F,C] | %12
w: ~ ~|~ ~ * for the|~ ~ * ~ ~|
 [C,C]2 [C,G,]2 [C,B,]2 [C,B,]2 | [F,A,]2 [F,A,]2 [F,A,]2 [F,C]>[F,C] | %14
w: to- day? ~ ~|~ ~ no- bly dare|
 [F,F][F,F-] F4 [F,C]>[F,A,] | [F,D][F,C-] C4 [A,,C]>[B,,D] | C6 [C,_B,]2 | [F,A,]6 |] %18
w: and do? * ~ ~|~ for * the fray?|~ ~|~|
V:4
 x2 | x8 | x8 | x8 | x2 G,3/2 x9/2 | x8 | x8 | x8 | x6 || x2 | x2 A,>C F,2 x2 | x2 A,>C F,2 x2 | %12
w: ||||||||||fray, * *|now, * *|
 x8 | x8 | x2 A,>C F,2 x2 | x2 A,>C F,2 x2 | C,>=B,,C,>D, C,2 x2 | x6 |] %18
w: ||~ * *|~ * *|||

